sourcemedia/redcontrast.spi1d
Version 1
From 0.000000 1.000000
Components 3
Length 5
{
0.0 0.0 0.0
0.25 0.1 0.05
0.5 0.2 0.1
0.75 0.3 0.15
1.0 0.4 0.2
}